remix/Device/phone-fill.svg

<svg viewBox="0 0 24 24" fill="currentColor" xmlns="http://www.w3.org/2000/svg"><path d="M21 16.42V19.9561C21 20.4811 20.5941 20.9167 20.0705 20.9537C19.6331 20.9846 19.2763 21 19 21C10.1634 21 3 13.8366 3 5C3 4.72371 3.01545 4.36687 3.04635 3.9295C3.08337 3.40588 3.51894 3 4.04386 3H7.5801C7.83678 3 8.05176 3.19442 8.07753 3.4498C8.10067 3.67907 8.12218 3.86314 8.14207 4.00202C8.34435 5.41472 8.75753 6.75936 9.3487 8.00303C9.44359 8.20265 9.38171 8.44159 9.20185 8.57006L7.04355 10.1118C8.35752 13.1811 10.8189 15.6425 13.8882 16.9565L15.4271 14.8019C15.5572 14.6199 15.799 14.5573 16.001 14.6532C17.2446 15.2439 18.5891 15.6566 20.0016 15.8584C20.1396 15.8782 20.3225 15.8995 20.5502 15.9225C20.8056 15.9483 21 16.1633 21 16.42Z"/></svg>

<svg viewBox="0 0 24 24" xmlns="http://www.w3.org/2000/svg"><path fill="none" d="M0 0h24v24H0Z"/><path d="M21 16.42v3.53 0c0 .52-.41.96-.93.99 -.44.03-.8.04-1.07.04 -8.837 0-16-7.17-16-16 0-.28.01-.64.04-1.07h0c.03-.53.47-.94.99-.93h3.53v0c.25-.01.47.19.49.45 .02.23.04.41.06.552l-.001 0c.19 1.38.6 2.73 1.2 4 .09.2.03.43-.15.56l-2.16 1.54v-.001c1.31 3.07 3.76 5.52 6.84 6.84l1.54-2.154v0c.12-.19.37-.25.57-.15v0c1.26.6 2.61 1 4 1.2 .13.02.32.04.55.06v0c.25.02.44.24.44.49Z"/></svg>
